static/images/icon-3.svg

<?xml version="1.0" encoding="UTF-8"?>
<svg width="34px" height="50px" viewBox="0 0 34 50" version="1.1" xmlns="http://www.w3.org/2000/svg" xmlns:xlink="http://www.w3.org/1999/xlink">
    <title>Fill 26</title>
    <g id="Page-1" stroke="none" stroke-width="1" fill="none" fill-rule="evenodd">
        <path d="M24.1928449,45.5472504 C22.6825761,47.9758072 19.7201908,49.5536631 16.6482628,49.5642527 L16.60972,49.5677826 C16.3334967,49.5677826 16.0636972,49.5536631 15.7935595,49.5289539 C13.8336249,49.3595197 12.0244804,48.5758866 10.6271352,47.2768911 C9.02659512,45.794342 8.15262045,43.7498361 8.22328223,41.6735613 C8.31693445,39.0032078 9.6341512,36.7553809 11.1315724,34.6787531 C13.0499215,32.0154595 15.459522,29.1636703 15.2955461,25.5677826 C15.3019699,25.701918 15.7391263,25.9768955 16.2212493,26.2486962 C16.7155437,26.5303806 17.2622427,26.8021812 17.4326424,26.9193732 C20.2662137,28.8484521 22.2362912,31.9685121 23.5663555,35.1588167 C24.8964199,38.3455914 26.1815177,42.3509451 24.1928449,45.5472504 Z M33.9940117,33.2508505 C34.0168048,32.1914643 33.9740677,31.1174636 33.8737147,30.0389162 C33.5938661,27.0358063 33.115211,24.0573786 32.4868178,21.1101285 C32.1499864,19.5320912 31.8549424,17.9124839 31.2107207,16.429603 C30.7409296,15.3484574 29.9840086,14.0620599 28.9165317,13.5274953 C28.4704834,14.3942953 28.5125873,15.7946857 28.2115284,16.7978874 C27.6939351,18.5110273 26.860404,20.0945856 25.7172666,21.54499 C25.6662987,21.6099431 25.6150143,21.6778192 25.5608806,21.7395247 C25.5488509,21.6407959 25.5396704,21.54499 25.5219424,21.4462611 C25.1699156,19.0235078 25.0011834,16.5728247 24.622248,14.1439009 C24.5348745,13.5882265 24.438637,13.0357998 24.3243549,12.483373 C24.161954,11.6977644 24.0020857,10.911831 23.8292381,10.1284958 C23.3094287,7.76907186 22.682935,5.39178579 21.5562593,3.25125403 C21.0047929,2.20323461 20.3301804,1.2198436 19.5080459,0.376101901 C19.0718112,-0.0717502152 18.8062083,-0.214322426 18.6222806,0.482949868 C18.5086317,0.914563691 18.5311082,1.36956066 18.4424684,1.80507167 C18.2917806,2.54683689 18.1040541,3.28048296 17.8830877,4.00341175 C17.4493856,5.42263854 16.8865226,6.79932101 16.2166587,8.11787039 C15.666142,9.20128928 15.0083077,10.2220284 14.3317958,11.2262044 C13.693589,12.1745207 13.0531661,13.0211853 12.2601561,13.8275789 C12.1287792,13.9610577 11.9799909,14.1033051 11.7951135,14.1149967 C11.6039047,14.127013 11.4348559,13.9958076 11.2892333,13.8678499 C10.5608038,13.2277364 9.90771808,12.4921417 9.11534123,11.9312711 C8.91875073,11.7925961 8.14188585,11.2011974 7.89717658,11.3249332 C7.64107075,11.4545148 7.87311719,12.1940067 7.90857313,12.3989339 C8.3346775,14.8541638 7.88767945,17.1869569 7.08485576,19.493444 C6.51597793,21.1279906 5.59159103,22.5842407 4.60294025,23.9804091 C4.27528941,24.4432005 3.95017114,24.9092395 3.63423343,25.3785261 C2.39485853,27.2212476 1.29065938,29.1376909 0.622694874,31.2057999 C0.430219793,31.7981728 0.279848637,32.4217233 0.171581404,33.0576148 C0.0690124466,33.6626536 0.00886398397,34.2767858 0,34.8909181 C0.00284913771,35.4589335 0.0449530616,36.0175308 0.120296925,36.5667099 C0.147522019,36.7644923 0.177279679,36.9587023 0.210519619,37.153237 C0.502397949,38.7985008 1.08900375,40.3570522 1.92538395,41.7827743 C4.30504707,45.8462447 8.68860372,48.8340906 13.9085406,49.723949 C14.9614552,49.9058179 16.0507755,50 17.1638387,50 C18.0454885,50 18.9239726,49.9382945 19.7932762,49.8148835 C22.1552114,49.477127 24.429773,48.7074319 26.4301842,47.5317795 C31.7735837,44.4010366 33.868333,39.0508439 33.9940117,33.2508505 L33.9940117,33.2508505 Z" id="Fill-26" fill="#FF4444"></path>
    </g>
</svg>

<svg width="34" height="50" viewBox="0 0 34 50" xmlns="http://www.w3.org/2000/svg"><path d="M24.193 45.547c-1.51 2.429-4.473 4.007-7.545 4.017l-.038.004c-.277 0-.546-.014-.816-.039-1.96-.17-3.77-.953-5.167-2.252-1.6-1.483-2.474-3.527-2.404-5.603.094-2.67 1.411-4.919 2.909-6.995 1.918-2.664 4.328-5.515 4.164-9.111.006.134.443.409.925.68.495.282 1.041.554 1.212.671 2.833 1.93 4.803 5.05 6.133 8.24 1.33 3.187 2.616 7.192.627 10.388zm9.801-12.296a28.17 28.17 0 00-.12-3.212 77.167 77.167 0 00-1.387-8.929c-.337-1.578-.632-3.198-1.276-4.68-.47-1.082-1.227-2.368-2.294-2.903-.447.867-.404 2.268-.705 3.27a14.306 14.306 0 01-2.495 4.748c-.05.065-.102.133-.156.195-.012-.1-.021-.195-.04-.294-.351-2.422-.52-4.873-.899-7.302a35.065 35.065 0 00-.298-1.66c-.162-.786-.322-1.572-.495-2.356-.52-2.359-1.146-4.736-2.273-6.877-.551-1.048-1.226-2.031-2.048-2.875-.436-.448-.702-.59-.886.107-.113.432-.09.887-.18 1.322a23.59 23.59 0 01-.559 2.198 25.638 25.638 0 01-1.666 4.115c-.55 1.083-1.209 2.104-1.885 3.108-.638.949-1.279 1.795-2.072 2.602-.131.133-.28.275-.465.287-.191.012-.36-.12-.506-.247-.728-.64-1.381-1.376-2.174-1.937-.196-.138-.973-.73-1.218-.606-.256.13-.024.869.012 1.074.426 2.455-.021 4.788-.824 7.094-.569 1.635-1.493 3.091-2.482 4.487-.328.463-.653.93-.969 1.399-1.24 1.842-2.343 3.759-3.011 5.827a13.162 13.162 0 00-.451 1.852C.069 33.663.009 34.277 0 34.89c.003.568.045 1.127.12 1.676a13.954 13.954 0 001.805 5.216c2.38 4.063 6.764 7.051 11.984 7.94a19.13 19.13 0 005.884.092c2.362-.338 4.637-1.108 6.637-2.283 5.344-3.131 7.438-8.481 7.564-14.281z" fill="#F44" fill-rule="evenodd"/></svg>
